X:6
T:The Cliffs of Moher #1
R:Jig
M:6/8
L:1/8
K:Ador
aga  bag | eaf  ged | c2 A BAG | EAF   GED |
aga  bag | eaf  ged | c2 A BAG | EFG    A3 :|
e2 e dBA | e=fe dBA | GAB  dBA | GAB   dBd | 
e2 e dBA | e=fe dBA | GAB  dBA | BAG    A3 |
e=fe dBA | e=fe dBA | GAB  dBA | GAB   dBd | 
e2 e dee | cee  Bee | EFG  BAG | EDB, A,3  |
